X:1
T:In the Morning
T:In the Morning
T:John Robson Sweney
T:Frances Jane (Fanny) Crosby, 1882
T:Public Domain Courtesy of the Cyber Hymnal™
T:Public Domain Courtesy of the Cyber Hymnal™
C:John Robson Sweney
Z:Public Domain
Z:Courtesy of the Cyber Hymnal™
%%score ( 1 2 ) ( 3 4 )
L:1/8
Q:1/4=93
M:3/4
K:Db
V:1 treble 
V:2 treble 
V:3 bass 
V:4 bass 
V:1
 [DF]>[EG] | [FA]3 [Fd] [DF]>[EG] | [FA]4 [Ad]>[Ac] | [GB]3 [G=A] [Gc]>[GB] | [FA]4 [DF]>[EG] | %5
w: 1.~We are|pil- grims look- ing|home, Sad and|wea- ry oft we|roam, But we|
w: 2.~O these|ten- der brok- en|ties, How they|dim our ach- ing|eyes, But like|
w: 3.~When our|fet- tered souls are|free, Far be-|yond the nar- row|sea, And we|
w: 4.~Thro’ our|pil- grim jour- ney|here, Tho’ the|night is some- times|drear, Let us|
 [FA]3 [Fd] [Fd]>[Fd] | [Ed]4 [Ec]>[Ed] | [Ee]6 | [EA]4 [DF]>[EG] | [FA]3 [FA] [GB]>[FA] | %10
w: know ’twill all be|well In the|morn-|ing; When our|an- chor firm- ly|
w: jew- els they will|shine In the|morn-|ing; When our|vic- tor palms we|
w: hear the Sav- ior’s|voice In the|morn-|ing; When our|gold- en sheaves we|
w: watch and per- se-|vere Till the|morn-|ing; Then our|high- est trib- ute|
 [Fd]4 [Ad]>[Ac] | [GB]3 [Ge] [Gd]>[GB] | [FA]4 [Fd]>[Ge] | [Af]3 [Ge] [Fd]>[GB] | %14
w: cast, Ev- ery|storm- y wave is|past, And we|ga- ther safe at|
w: bear And our|robes im- mor- tal|wear, We shall|know each o- ther|
w: bring To the|feet of Christ our|king, What a|cho- rus we shall|
w: raise For the|love that crowns our|days, And to|Je- sus give the|
 [FA]4 [DF]>[Fd] | c6 | [Fd]4 ||"^Refrain" [Fd]>[Fd] | [Ge]4 [CE]>[DF] | [EG]4 [Gc]>[GB] | [FA]6 | %21
w: last In the|morn-|ing.|||||
w: there, In the|morn-|ing.|||||
w: sing In the|morn-|ing.|When we|all meet a-|gain In the|morn-|
w: praise In the|morn-|ing.|||||
 [Fd]4 [Ad]>[Ac] | [GB]4 [Gd]>[Gd] | [=Gd]4 [Ge]>[Gf] | [Ae]6 | [EA]4 [DF]>[EG] | %26
w: |||||
w: |||||
w: ing, On the|sweet bloom- ing|hills In the|morn-|ing; Ne- ver-|
w: |||||
 [FA]3 [FA] [GB]>[FA] | [Fd]4 [Ad]>[Ac] [GB]3 [Ge][Gd]>[GB] | [FA]4 [Fd]>[Ge] | %29
w: |||
w: |||
w: more to say good|night In that sun- ny re- gion|bright, When we|
w: |||
 [Af]3 [Ge] [Fd]>[GB] | [FA]4 [DF]>[Fd] | c6 | [Fd]4 |] %33
w: ||||
w: ||||
w: hail the bless- èd|light Of the|morn-|ing.|
w: ||||
V:2
 x2 | x6 | x6 | x6 | x6 | x6 | x6 | x6 | x6 | x6 | x6 | x6 | x6 | x6 | x6 | (E4 G2) | x4 || x2 | %18
 x6 | x6 | x6 | x6 | x6 | x6 | x6 | x6 | x6 | x12 | x6 | x6 | x6 | (E4 G2) | x4 |] %33
V:3
 [D,A,]>[D,A,] | [D,D]3 [D,A,] [D,A,]>[D,A,] | [D,D]4 [F,D]>[F,D] | [G,D]3 [G,C] [G,E]>[G,D] | %4
 [D,D]4 [D,A,]>[D,A,] | [D,D]3 [D,A,] [D,A,]>[D,A,] | [E,=G,]4 [E,A,]>[E,B,] | [A,C]6 | %8
 C4 [F,A,]>[E,A,] | [D,D]3 [D,D] [D,D]>[D,D] | [D,A,]4 [F,D]>[F,D] | [G,D]3 [G,B,] [G,B,]>[G,D] | %12
 [D,D]4 [D,A,]>[D,A,] | [D,D]3 [D,A,] [D,A,]>[D,D] | [D,D]4 [D,A,]>[D,A,] | [A,,A,]6 | [D,A,]4 || %17
 [D,A,]>[D,D] | [A,,C]4 [A,,A,]>[A,,A,] | [A,,A,]4 [A,,A,]>[A,,C] | [D,D]6 | [D,A,]4 [F,D]>[F,D] | %22
 [G,D]4 [G,B,]>[G,B,] | [E,B,]4 [E,B,]>[E,B,] | [A,C]6 | C4 [F,A,]>[E,A,] | %26
 [D,D]3 [D,D] [D,D]>[D,D] | [D,A,]4 [F,D]>[F,D] [G,D]3 [G,B,][G,B,]>[G,D] | [D,D]4 [D,A,]>[D,A,] | %29
 [D,D]3 [D,A,] [D,A,]>[D,D] | [D,D]4 [D,A,]>[D,A,] | [A,,A,]6 | [D,A,]4 |] %33
V:4
 x2 | x6 | x6 | x6 | x6 | x6 | x6 | x6 | (A,3 G,) x2 | x6 | x6 | x6 | x6 | x6 | x6 | x6 | x4 || %17
 x2 | x6 | x6 | x6 | x6 | x6 | x6 | x6 | A,3 G, x2 | x6 | x12 | x6 | x6 | x6 | x6 | x4 |] %33

